img/group4.svg

<svg width="85" height="42" viewBox="0 0 85 42" fill="none" xmlns="http://www.w3.org/2000/svg">
<path d="M13.1462 13.1028H13.1433C10.7453 13.1028 8.80127 14.8304 8.80127 16.9615V16.964C8.80127 19.0951 10.7453 20.8227 13.1433 20.8227H13.1462C15.5442 20.8227 17.4882 19.0951 17.4882 16.964V16.9615C17.4882 14.8304 15.5442 13.1028 13.1462 13.1028Z" fill="#2196F3"/>
<path d="M45.195 11.8693C45.1882 8.90929 43.8623 6.07223 41.5074 3.97895C39.1525 1.88568 35.9604 0.706672 32.6297 0.699951V0.699951C29.298 0.705328 26.1045 1.88374 23.7484 3.97716C21.3922 6.07058 20.0655 8.90841 20.0587 11.8693V28.1921C20.0587 28.1921 45.1922 25.7044 45.195 11.8718V11.8693Z" fill="#2196F3"/>
<path d="M0 33.5495C0.00604098 35.6091 0.929149 37.5828 2.56761 39.0394C4.20607 40.496 6.42668 41.317 8.74418 41.3231C11.0612 41.317 13.2814 40.4963 14.9197 39.0403C16.5581 37.5843 17.4816 35.6112 17.4884 33.552V22.1943C17.4884 22.1943 0 23.9266 0 33.5495ZM8.74418 35.5844C8.2913 35.5844 7.84859 35.4651 7.47203 35.2415C7.09548 35.0179 6.80199 34.7001 6.62868 34.3282C6.45537 33.9564 6.41002 33.5472 6.49838 33.1525C6.58673 32.7577 6.80481 32.3951 7.12505 32.1105C7.44528 31.8259 7.85328 31.6321 8.29746 31.5536C8.74164 31.4751 9.20204 31.5154 9.62045 31.6694C10.0389 31.8234 10.3965 32.0843 10.6481 32.4189C10.8997 32.7535 11.034 33.147 11.034 33.5495C11.0351 33.8173 10.9767 34.0828 10.8622 34.3306C10.7476 34.5783 10.5791 34.8036 10.3664 34.9933C10.1536 35.1831 9.90081 35.3337 9.62244 35.4364C9.34406 35.5392 9.04561 35.5921 8.74418 35.5921V35.5844Z" fill="#2196F3"/>
<path d="M26.4177 34.4637H24.7302V36.2069H23.8513V31.9413H26.6287V32.6532H24.7302V33.7548H26.4177V34.4637ZM30.6423 34.1708C30.6423 34.5907 30.5681 34.9589 30.4197 35.2753C30.2712 35.5917 30.0583 35.8358 29.781 36.0077C29.5056 36.1796 29.1892 36.2655 28.8318 36.2655C28.4783 36.2655 28.1628 36.1805 27.8855 36.0106C27.6082 35.8407 27.3933 35.5985 27.241 35.2841C27.0886 34.9677 27.0115 34.6044 27.0095 34.1942V33.9833C27.0095 33.5634 27.0847 33.1942 27.2351 32.8759C27.3875 32.5555 27.6013 32.3104 27.8767 32.1405C28.1541 31.9686 28.4705 31.8827 28.8259 31.8827C29.1814 31.8827 29.4968 31.9686 29.7722 32.1405C30.0496 32.3104 30.2634 32.5555 30.4138 32.8759C30.5662 33.1942 30.6423 33.5624 30.6423 33.9803V34.1708ZM29.7517 33.9774C29.7517 33.5302 29.6716 33.1903 29.5115 32.9579C29.3513 32.7255 29.1228 32.6093 28.8259 32.6093C28.531 32.6093 28.3035 32.7245 28.1433 32.955C27.9832 33.1835 27.9021 33.5194 27.9001 33.9628V34.1708C27.9001 34.6063 27.9802 34.9442 28.1404 35.1844C28.3005 35.4247 28.531 35.5448 28.8318 35.5448C29.1267 35.5448 29.3533 35.4296 29.5115 35.1991C29.6697 34.9667 29.7498 34.6288 29.7517 34.1854V33.9774ZM33.4929 35.0878C33.4929 34.9218 33.4343 34.7948 33.3171 34.7069C33.2 34.6171 32.989 34.5233 32.6843 34.4257C32.3796 34.326 32.1384 34.2284 31.9607 34.1327C31.4763 33.871 31.2341 33.5184 31.2341 33.0751C31.2341 32.8446 31.2986 32.6395 31.4275 32.4598C31.5583 32.2782 31.7449 32.1366 31.9871 32.035C32.2312 31.9335 32.5046 31.8827 32.8074 31.8827C33.1121 31.8827 33.3835 31.9384 33.6218 32.0497C33.8601 32.1591 34.0447 32.3143 34.1755 32.5155C34.3083 32.7167 34.3748 32.9452 34.3748 33.201H33.4958C33.4958 33.0057 33.4343 32.8544 33.3113 32.7469C33.1882 32.6376 33.0154 32.5829 32.7927 32.5829C32.5779 32.5829 32.4109 32.6288 32.2917 32.7206C32.1726 32.8104 32.113 32.9296 32.113 33.078C32.113 33.2167 32.1824 33.3329 32.321 33.4266C32.4617 33.5204 32.6677 33.6083 32.9392 33.6903C33.4392 33.8407 33.8035 34.0272 34.032 34.2499C34.2605 34.4725 34.3748 34.7499 34.3748 35.0819C34.3748 35.451 34.2351 35.7411 33.9558 35.952C33.6765 36.161 33.3005 36.2655 32.8279 36.2655C32.4998 36.2655 32.2009 36.2059 31.9314 36.0868C31.6619 35.9657 31.4558 35.8007 31.3132 35.5917C31.1726 35.3827 31.1023 35.1405 31.1023 34.8651H31.9841C31.9841 35.3358 32.2654 35.5712 32.8279 35.5712C33.0369 35.5712 33.2 35.5292 33.3171 35.4452C33.4343 35.3593 33.4929 35.2401 33.4929 35.0878ZM38.1833 32.6532H36.8767V36.2069H35.9978V32.6532H34.7087V31.9413H38.1833V32.6532ZM41.2537 34.3583H39.5662V35.5009H41.5466V36.2069H38.6873V31.9413H41.5408V32.6532H39.5662V33.6698H41.2537V34.3583ZM43.6414 34.6454H42.9412V36.2069H42.0623V31.9413H43.6472C44.1511 31.9413 44.5398 32.0536 44.8132 32.2782C45.0867 32.5028 45.2234 32.8202 45.2234 33.2303C45.2234 33.5214 45.1599 33.7645 45.033 33.9598C44.908 34.1532 44.7175 34.3075 44.4617 34.4227L45.3845 36.1659V36.2069H44.4412L43.6414 34.6454ZM42.9412 33.9335H43.6501C43.8708 33.9335 44.0417 33.8778 44.1628 33.7665C44.2839 33.6532 44.3445 33.4979 44.3445 33.3007C44.3445 33.0995 44.2869 32.9413 44.1716 32.826C44.0583 32.7108 43.8835 32.6532 43.6472 32.6532H42.9412V33.9335ZM48.2673 34.704V36.2069H47.3884V31.9413H49.0525C49.3728 31.9413 49.6541 31.9999 49.8962 32.1171C50.1404 32.2343 50.3279 32.4012 50.4587 32.618C50.5896 32.8329 50.655 33.078 50.655 33.3534C50.655 33.7714 50.5115 34.1014 50.2244 34.3436C49.9392 34.5839 49.5437 34.704 49.0378 34.704H48.2673ZM48.2673 33.9921H49.0525C49.2849 33.9921 49.4617 33.9374 49.5828 33.828C49.7058 33.7186 49.7673 33.5624 49.7673 33.3593C49.7673 33.1503 49.7058 32.9813 49.5828 32.8524C49.4597 32.7235 49.2898 32.6571 49.073 32.6532H48.2673V33.9921ZM53.8279 34.3583H52.1404V35.5009H54.1208V36.2069H51.2615V31.9413H54.115V32.6532H52.1404V33.6698H53.8279V34.3583ZM57.906 32.6532H56.5994V36.2069H55.7205V32.6532H54.4314V31.9413H57.906V32.6532ZM60.9763 34.3583H59.2888V35.5009H61.2693V36.2069H58.4099V31.9413H61.2634V32.6532H59.2888V33.6698H60.9763V34.3583ZM63.364 34.6454H62.6638V36.2069H61.7849V31.9413H63.3699C63.8738 31.9413 64.2625 32.0536 64.5359 32.2782C64.8093 32.5028 64.946 32.8202 64.946 33.2303C64.946 33.5214 64.8826 33.7645 64.7556 33.9598C64.6306 34.1532 64.4402 34.3075 64.1843 34.4227L65.1072 36.1659V36.2069H64.1638L63.364 34.6454ZM62.6638 33.9335H63.3728C63.5935 33.9335 63.7644 33.8778 63.8855 33.7665C64.0066 33.6532 64.0671 33.4979 64.0671 33.3007C64.0671 33.0995 64.0095 32.9413 63.8943 32.826C63.781 32.7108 63.6062 32.6532 63.3699 32.6532H62.6638V33.9335ZM67.8289 35.0878C67.8289 34.9218 67.7703 34.7948 67.6531 34.7069C67.5359 34.6171 67.325 34.5233 67.0203 34.4257C66.7156 34.326 66.4744 34.2284 66.2966 34.1327C65.8123 33.871 65.5701 33.5184 65.5701 33.0751C65.5701 32.8446 65.6345 32.6395 65.7634 32.4598C65.8943 32.2782 66.0808 32.1366 66.323 32.035C66.5671 31.9335 66.8406 31.8827 67.1433 31.8827C67.448 31.8827 67.7195 31.9384 67.9578 32.0497C68.196 32.1591 68.3806 32.3143 68.5115 32.5155C68.6443 32.7167 68.7107 32.9452 68.7107 33.201H67.8318C67.8318 33.0057 67.7703 32.8544 67.6472 32.7469C67.5242 32.6376 67.3513 32.5829 67.1287 32.5829C66.9138 32.5829 66.7468 32.6288 66.6277 32.7206C66.5085 32.8104 66.449 32.9296 66.449 33.078C66.449 33.2167 66.5183 33.3329 66.657 33.4266C66.7976 33.5204 67.0037 33.6083 67.2751 33.6903C67.7751 33.8407 68.1394 34.0272 68.3679 34.2499C68.5964 34.4725 68.7107 34.7499 68.7107 35.0819C68.7107 35.451 68.571 35.7411 68.2917 35.952C68.0125 36.161 67.6365 36.2655 67.1638 36.2655C66.8357 36.2655 66.5369 36.2059 66.2673 36.0868C65.9978 35.9657 65.7917 35.8007 65.6492 35.5917C65.5085 35.3827 65.4382 35.1405 65.4382 34.8651H66.3201C66.3201 35.3358 66.6013 35.5712 67.1638 35.5712C67.3728 35.5712 67.5359 35.5292 67.6531 35.4452C67.7703 35.3593 67.8289 35.2401 67.8289 35.0878Z" fill="#2196F3"/>
</svg>

<svg width="85" height="42" fill="none" xmlns="http://www.w3.org/2000/svg"><path d="M13.146 13.103h-.003c-2.398 0-4.342 1.727-4.342 3.859v.002c0 2.131 1.944 3.859 4.342 3.859h.003c2.398 0 4.342-1.728 4.342-3.859v-.002c0-2.132-1.944-3.86-4.342-3.86ZM45.195 11.87c-.007-2.96-1.333-5.798-3.688-7.891C39.153 1.886 35.96.707 32.63.7c-3.332.005-6.526 1.184-8.882 3.277-2.356 2.094-3.683 4.931-3.69 7.892v16.323s25.134-2.488 25.137-16.32v-.003ZM0 33.55c.006 2.06.93 4.033 2.568 5.49 1.638 1.456 3.859 2.277 6.176 2.283 2.317-.006 4.537-.827 6.176-2.283 1.638-1.456 2.562-3.429 2.568-5.488V22.194S0 23.927 0 33.55Zm8.744 2.034c-.453 0-.895-.119-1.272-.343a2.107 2.107 0 0 1-.843-.913 1.825 1.825 0 0 1-.13-1.175c.088-.395.306-.758.626-1.042a2.39 2.39 0 0 1 1.172-.557 2.558 2.558 0 0 1 1.323.115c.419.154.777.415 1.028.75.252.335.386.728.386 1.13.001.268-.057.534-.172.782a2.036 2.036 0 0 1-.496.662c-.212.19-.465.34-.744.443a2.54 2.54 0 0 1-.878.156v-.008ZM26.418 34.464H24.73v1.743h-.879V31.94h2.778v.712H24.73v1.102h1.688v.709Zm4.224-.293c0 .42-.074.788-.222 1.104-.149.317-.362.56-.639.733a1.755 1.755 0 0 1-.95.258 1.695 1.695 0 0 1-1.59-.981 2.511 2.511 0 0 1-.232-1.09v-.212c0-.42.076-.789.226-1.107.152-.32.366-.566.642-.735.277-.172.594-.258.949-.258s.67.086.946.258c.278.17.491.415.642.735.152.318.228.686.228 1.104v.19Zm-.89-.194c0-.447-.08-.787-.24-1.02a.783.783 0 0 0-.686-.348.782.782 0 0 0-.683.346c-.16.229-.24.564-.243 1.008v.208c0 .435.08.773.24 1.013.16.24.391.36.692.36a.775.775 0 0 0 .68-.345c.158-.232.238-.57.24-1.014v-.208Zm3.74 1.11a.447.447 0 0 0-.175-.38c-.117-.09-.328-.184-.633-.281a4.57 4.57 0 0 1-.723-.293c-.485-.262-.727-.615-.727-1.058 0-.23.065-.436.193-.615.131-.182.318-.323.56-.425.244-.101.518-.152.82-.152.305 0 .576.055.815.167.238.11.423.264.553.466.133.2.2.43.2.685h-.88c0-.195-.06-.347-.184-.454-.123-.11-.296-.164-.518-.164-.215 0-.382.046-.501.138a.426.426 0 0 0-.179.357c0 .139.07.255.208.349.14.093.347.181.618.263.5.15.864.337 1.093.56.229.222.343.5.343.832 0 .369-.14.66-.42.87-.279.209-.654.314-1.127.314-.328 0-.627-.06-.897-.18a1.439 1.439 0 0 1-.618-.494 1.27 1.27 0 0 1-.21-.727h.881c0 .47.281.706.844.706.209 0 .372-.042.49-.126a.418.418 0 0 0 .175-.357Zm4.691-2.434h-1.306v3.554h-.88v-3.554H34.71v-.712h3.474v.712Zm3.07 1.705h-1.687v1.143h1.98v.706h-2.859V31.94h2.854v.712h-1.975v1.017h1.688v.688Zm2.388.287h-.7v1.562h-.879V31.94h1.585c.504 0 .893.113 1.166.337.274.225.41.542.41.952 0 .291-.063.535-.19.73a1.283 1.283 0 0 1-.571.463l.922 1.743v.04h-.943l-.8-1.56Zm-.7-.712h.71c.22 0 .39-.055.512-.166a.607.607 0 0 0 .181-.466c0-.202-.057-.36-.172-.475-.114-.115-.288-.173-.525-.173h-.706v1.28Zm5.326.771v1.503h-.879V31.94h1.665c.32 0 .601.059.843.176.244.117.432.284.563.501.13.215.196.46.196.735 0 .418-.144.748-.43.99-.286.24-.681.361-1.187.361h-.77Zm0-.712h.785c.233 0 .41-.055.53-.164.124-.11.185-.266.185-.469a.704.704 0 0 0-.184-.507c-.123-.128-.293-.195-.51-.199h-.806v1.34Zm5.56.366H52.14v1.143h1.98v.706h-2.858V31.94h2.853v.712H52.14v1.017h1.688v.688Zm4.079-1.705h-1.307v3.554h-.878v-3.554h-1.29v-.712h3.475v.712Zm3.07 1.705H59.29v1.143h1.98v.706h-2.86V31.94h2.854v.712H59.29v1.017h1.687v.688Zm2.388.287h-.7v1.562h-.88V31.94h1.586c.504 0 .893.113 1.166.337.273.225.41.542.41.952 0 .291-.063.535-.19.73a1.282 1.282 0 0 1-.572.463l.923 1.743v.04h-.943l-.8-1.56Zm-.7-.712h.709c.22 0 .391-.055.513-.166a.607.607 0 0 0 .181-.466c0-.202-.057-.36-.173-.475-.113-.115-.288-.173-.524-.173h-.706v1.28Zm5.165 1.155a.447.447 0 0 0-.176-.381c-.117-.09-.328-.184-.633-.281a4.575 4.575 0 0 1-.723-.293c-.485-.262-.727-.615-.727-1.058 0-.23.065-.436.193-.615.131-.182.318-.323.56-.425.244-.101.518-.152.82-.152.305 0 .576.055.815.167.238.11.423.264.553.466.133.2.2.43.2.685h-.88c0-.195-.06-.347-.184-.454-.123-.11-.296-.164-.518-.164-.215 0-.382.046-.501.138a.426.426 0 0 0-.179.357c0 .139.07.255.208.349.14.093.347.181.618.263.5.15.864.337 1.093.56.228.222.343.5.343.832 0 .369-.14.66-.42.87-.278.209-.654.314-1.127.314-.328 0-.627-.06-.897-.18a1.438 1.438 0 0 1-.618-.494 1.27 1.27 0 0 1-.21-.727h.881c0 .47.281.706.844.706.209 0 .372-.042.49-.126a.418.418 0 0 0 .175-.357Z" fill="#2196F3"/></svg>
